X:61
T:Semper Paratus
C:F.S. Van Boskerck
C:Arr. C. French, C. Myers
M:2/4
L:1/4
Q:1/4=100
K:A
V:1
%%MIDI channel 1
%%MIDI program 72
%%MIDI transpose 8
%%MIDI grace 1/8
%%MIDI ratio 3 1
A A/>A/|A/E/ A/c/|e2-|e/z/ e|f>e|d f|e2-|e/z/ c|
d>c|B e|c B|A/z/ c|B e|^d f|e2-|e/z/ e|
A A/>A/|A/E/ A/c/|e2-|e/z/ e|f>e|d f|e2-|e/z/ c|
d>c|B e|c B|A B|c/ e c/|A B|A2-|A z|]
V:2
%%MIDI channel 1
%%MIDI program 72
%%MIDI transpose 8
%%MIDI grace 1/8
%%MIDI ratio 3 1
!p!c c/>B/|A/c/e/ (a//g//|a/)A/ A/e//d//|c//e//a/ a/z/|
d>c|B d/ (a//g//|a/)A/ A/e//d//|c//e//a/ a/z/|
B>A|G B|E =F|^F =G|^G G|A A|G2-|G/z/ z|
c c/>B/|A/c/e/ (a//g//|a/)A/ A/e//d//|c//e//a/ a/z/|
d>c|B d/ (a//g//|a/)A/ A/e//d//|c//e//a/ a/z/|
B>A|G B|E =F|^F =F|E/ E E/|F G|A2-|A z|]

